**kern	**kern	**dynam
*part1	*part1	*part1
*staff2	*staff1	*
*I"Piano	*	*
*clefF4	*clefG2	*
*k[]	*k[]	*
*M2/4	*M2/4	*
=1	=1	=1
*^	*	*
*	*^	*	*
4G	8C#XL 8E	((2B-X/ 2c#X	(4g	f >
.	8GG	.	.	.
8.AL	8C# 8E	.	8.aL	]
.	8GGJ	.	.	.
16GJk	.	.	16gJk	.
=	=	=	=	=
4ryy	8DL 8F	4G/) 4Bn 4d	[4g)	.
.	8GG	.	.	.
4ryy	8D 8F	4ryy	8g]) 8b 8dd 8gg	.
.	8GGJ	.	8r	.
=	=	=	=	=
4G	8C#XL 8E	((2B-X/ 2c#X	4g	<
.	8GG	.	.	.
8.AL	8C# 8E	.	8.aL	[ >
.	8GGJ	.	.	.
16GJk	.	.	16gJk	]
=	=	=	=	=
4ryy	8DL 8F	4G/) 4Bn 4d	[4g)	.
.	8GG	.	.	.
4ryy	8D 8F	4ryy	8g] 8b 8dd 8gg	.
.	8GGJ	.	8r	.
*v	*v	*v	*	*
=	=	=
8FL	4B 4d 4g 4b	f <
8G	.	.
8E	8.cL 8.g 8.cc	.
8GJ	.	.
.	16cJk 16g 16cc	.
=	=	=
8BBL	4d 4g 4dd	.
8G	.	.
8C	4e 4g 4ee	[
8GJ	.	.
=	=	=
!	!	!LO:DY:a
8r	[2f^^ [2g [2b [2ff	f
(8GGGL	.	.
8DD	.	.
8GGJ	.	.
=	=	=
*-	*-	*-
!!!system-decoration: {(s1,s2)}
